assets/img/player/default.svg

<?xml version="1.0" encoding="UTF-8" standalone="no"?>
<svg
   width="32"
   height="32"
   version="1.1"
   id="svg2"
   sodipodi:docname="default.svg"
   inkscape:version="1.4.2 (ebf0e940d0, 2025-05-08)"
   xmlns:inkscape="http://www.inkscape.org/namespaces/inkscape"
   xmlns:sodipodi="http://sodipodi.sourceforge.net/DTD/sodipodi-0.dtd"
   xmlns="http://www.w3.org/2000/svg"
   xmlns:svg="http://www.w3.org/2000/svg">
  <sodipodi:namedview
     id="namedview2"
     pagecolor="#ffffff"
     bordercolor="#000000"
     borderopacity="0.25"
     inkscape:showpageshadow="2"
     inkscape:pageopacity="0.0"
     inkscape:pagecheckerboard="0"
     inkscape:deskcolor="#d1d1d1"
     inkscape:zoom="15.25"
     inkscape:cx="15.47541"
     inkscape:cy="15.868852"
     inkscape:window-width="1366"
     inkscape:window-height="696"
     inkscape:window-x="0"
     inkscape:window-y="0"
     inkscape:window-maximized="1"
     inkscape:current-layer="svg2" />
  <defs
     id="defs1" />
  <g
     id="g2"
     transform="rotate(22,11.98181,21.304811)">
    <path
       stroke="none"
       fill="#000000"
       d="M 10.25,8.25 10.05,8.65 10,9 v 14.1 l 0.05,0.3 0.2,0.35 0.55,0.25 0.65,-0.15 0.15,-0.15 0.15,-0.25 2.9,-3.65 0.2,-0.15 0.1,-0.15 0.45,-0.3 0.55,-0.1 h 5.1 0.15 l 0.15,-0.05 0.3,-0.15 0.25,-0.3 0.1,-0.3 V 17.9 L 21.9,17.65 21.75,17.35 21.65,17.3 21.55,17.15 11.5,8.25 11.25,8.05 10.95,8 10.6,8.05 10.25,8.25 M 9.15,6.6 9.7,6.25 10,6.15 10.95,6 11.9,6.15 13,6.9 l 9.9,8.75 0.1,0.15 0.2,0.15 0.55,0.8 0.25,1.15 v 0.4 l -0.1,0.65 -0.1,0.3 -0.2,0.45 -0.5,0.65 -0.35,0.25 -0.65,0.3 -0.05,0.05 H 22 L 21.2,21.1 H 21.05 16.2 l -0.1,0.15 h -0.05 l -2.65,3.35 -0.35,0.55 -0.15,0.15 -0.35,0.25 q -0.95,0.6 -2,0.45 H 10.5 Q 9.65,25.85 9,25.3 L 8.45,24.65 8.4,24.5 8.15,24.05 8,23.1 V 9 Q 8,8.45 8.15,8.05 l 0.1,-0.3 0.2,-0.4 0.7,-0.75"
       id="path1" />
    <path
       stroke="none"
       fill="#ffffff"
       d="M 10.25,8.25 10.6,8.05 10.95,8 l 0.3,0.05 0.25,0.2 10.05,8.9 0.1,0.15 0.1,0.05 0.15,0.3 0.1,0.25 v 0.4 l -0.1,0.3 -0.25,0.3 -0.3,0.15 -0.15,0.05 h -0.15 -5.1 l -0.55,0.1 -0.45,0.3 -0.1,0.15 -0.2,0.15 -2.9,3.65 L 11.6,23.7 11.45,23.85 10.8,24 10.25,23.75 10.05,23.4 10,23.1 V 9 l 0.05,-0.35 0.2,-0.4"
       id="path2" />
  </g>
</svg>

<svg width="32" height="32" xmlns="http://www.w3.org/2000/svg" xmlns:xlink="http://www.w3.org/1999/xlink">
  <defs/>
  <g>
    <path stroke="none" fill="#000000" d="M10.25 8.25 L10.05 8.65 10 9 10 23.1 10.05 23.4 10.25 23.75 10.8 24 11.45 23.85 11.6 23.7 11.75 23.45 14.65 19.8 14.85 19.65 14.95 19.5 15.4 19.2 15.95 19.1 21.05 19.1 21.2 19.1 21.35 19.05 21.65 18.9 21.9 18.6 22 18.3 22 17.9 21.9 17.65 21.75 17.35 21.65 17.3 21.55 17.15 11.5 8.25 11.25 8.05 10.95 8 10.6 8.05 10.25 8.25 M9.15 6.6 L9.7 6.25 10 6.15 10.95 6 11.9 6.15 13 6.9 22.9 15.65 23 15.8 23.2 15.95 23.75 16.75 24 17.9 24 18.3 23.9 18.95 23.8 19.25 23.6 19.7 23.1 20.35 22.75 20.6 22.1 20.9 22.05 20.95 22 20.95 21.2 21.1 21.05 21.1 16.2 21.1 16.1 21.25 16.05 21.25 13.4 24.6 13.05 25.15 12.9 25.3 12.55 25.55 Q11.6 26.15 10.55 26 L10.5 26 Q9.65 25.85 9 25.3 L8.45 24.65 8.4 24.5 8.15 24.05 8 23.1 8 9 Q8 8.45 8.15 8.05 L8.25 7.75 8.45 7.35 9.15 6.6"/>
    <path stroke="none" fill="#FFFFFF" d="M10.25 8.25 L10.6 8.05 10.95 8 11.25 8.05 11.5 8.25 21.55 17.15 21.65 17.3 21.75 17.35 21.9 17.65 22 17.9 22 18.3 21.9 18.6 21.65 18.9 21.35 19.05 21.2 19.1 21.05 19.1 15.95 19.1 15.4 19.2 14.95 19.5 14.85 19.65 14.65 19.8 11.75 23.45 11.6 23.7 11.45 23.85 10.8 24 10.25 23.75 10.05 23.4 10 23.1 10 9 10.05 8.65 10.25 8.25"/>
  </g>
</svg>
